assets/images/print.svg

<!-- Generated by IcoMoon.io -->
<svg version="1.1" xmlns="http://www.w3.org/2000/svg" width="768" height="768" viewBox="0 0 768 768">
<title></title>
<g id="icomoon-ignore">
</g>
<path d="M576 96v127.5h-384v-127.5h384zM607.5 384q13.5 0 23.25-9t9.75-22.5-9.75-23.25-23.25-9.75-22.5 9.75-9 23.25 9 22.5 22.5 9zM511.5 607.5v-159h-255v159h255zM607.5 256.5q39 0 67.5 28.5t28.5 67.5v192h-127.5v127.5h-384v-127.5h-127.5v-192q0-39 28.5-67.5t67.5-28.5h447z"></path>
</svg>

<svg xmlns="http://www.w3.org/2000/svg" width="768" height="768"><path d="M576 96v127.5H192V96h384zm31.5 288q13.5 0 23.3-9t9.7-22.5-9.8-23.3-23.2-9.7-22.5 9.8-9 23.2 9 22.5 22.5 9zm-96 223.5v-159h-255v159h255zm96-351q39 0 67.5 28.5t28.5 67.5v192H576V672H192V544.5H64.5v-192q0-39 28.5-67.5t67.5-28.5h447z"/></svg>
